X:88
T:Flowers of Red Hill (reel), The
B:CRE2.254 (BlÃÂÃÂÃÂÃÂ¡thanna an Chnoic Rua)
F:file ID: cre.2/088flow_rh
L:1/8
M:C
R:reel
Q:180
K:Am
eg|aged BGGA|BGdG Bde^f|aged BGGA|BGdB A2eg|
aged BGGA|BGdG Bde^f|ageg dGGA|BGdB A2||
eg|agab g2eg|agab gedg|eaa/b/a gaba|(3e^fg dB A2eg|
agab g2eg|a3^f gedg|eaa/b/a g2bg|(3e^fg dB HA2||

%%%

